src/16/panel/syspeek-60.svg

<svg xmlns="http://www.w3.org/2000/svg" width="16" height="16"><defs><style id="current-color-scheme" type="text/css"></style></defs><path d="M3 1C1 1 1 3 1 3v10c0 2 2 2 2 2h10s2 0 2-2V3c0-2-2-2-2-2zm0 2h10v10H3zm1 4v5h8V7z" fill="currentColor" color="#bebebe"/></svg>

<svg xmlns="http://www.w3.org/2000/svg" width="16" height="16" version="1.1">
 <defs>
  <style id="current-color-scheme" type="text/css">
   .ColorScheme-Text { color:#dfdfdf; } .ColorScheme-Highlight { color:#4285f4; }
  </style>
 </defs>
 <path style="fill:currentColor" class="ColorScheme-Text" d="M 3,1 C 1,1 1,3 1,3 V 13 C 1,15 3,15 3,15 H 13 C 13,15 15,15 15,13 V 3 C 15,1 13,1 13,1 Z M 3,3 H 13 V 13 H 3 Z M 4,7 V 12 H 12 V 7 Z"/>
</svg>
